packages/kaspersky-hexa-ui-icons/src/iconsSVGs/24/ThreatMalwareBug.svg

<svg width="24" height="24" viewBox="0 0 24 24" fill="none" xmlns="http://www.w3.org/2000/svg">
<path fill-rule="evenodd" clip-rule="evenodd" d="M12 1C9.79086 1 8 2.79086 8 5C6.34315 5 5 6.34315 5 8C4.44772 8 4 7.55228 4 7V5C4 4.44772 3.55228 4 3 4C2.44772 4 2 4.44772 2 5V7C2 8.65685 3.34315 10 5 10V12H4C3.44772 12 3 12.4477 3 13C3 13.5523 3.44772 14 4 14H5V16C5 16.0568 5.00095 16.1134 5.00283 16.1697C3.83616 16.5807 3 17.6927 3 19V21C3 21.5523 3.44772 22 4 22C4.55228 22 5 21.5523 5 21V19C5 18.6374 5.19303 18.3198 5.48194 18.1445C6.28475 19.8329 8.00607 21 10 21H14C15.9939 21 17.7153 19.8329 18.5181 18.1445C18.807 18.3198 19 18.6374 19 19V21C19 21.5523 19.4477 22 20 22C20.5523 22 21 21.5523 21 21V19C21 17.6927 20.1638 16.5807 18.9972 16.1697C18.9991 16.1134 19 16.0568 19 16V14H20C20.5523 14 21 13.5523 21 13C21 12.4477 20.5523 12 20 12H19V10C20.6569 10 22 8.65685 22 7V5C22 4.44772 21.5523 4 21 4C20.4477 4 20 4.44772 20 5V7C20 7.55228 19.5523 8 19 8C19 6.34315 17.6569 5 16 5C16 2.79086 14.2091 1 12 1ZM14 5C14 3.89543 13.1046 3 12 3C10.8954 3 10 3.89543 10 5H14ZM8 7C7.44772 7 7 7.44772 7 8V16C7 17.6569 8.34315 19 10 19H11V7H8ZM13 7V19H14C15.6569 19 17 17.6569 17 16V8C17 7.44772 16.5523 7 16 7H13Z" fill="black"/>
</svg>

<svg xmlns="http://www.w3.org/2000/svg" width="24" height="24" fill="none" viewBox="0 0 24 24"><path fill="#000" fill-rule="evenodd" d="M12 1C9.7909 1 8 2.7909 8 5 6.3431 5 5 6.3431 5 8c-.5523 0-1-.4477-1-1V5c0-.5523-.4477-1-1-1s-1 .4477-1 1v2c0 1.6569 1.3432 3 3 3v2H4c-.5523 0-1 .4477-1 1s.4477 1 1 1h1v2q0 .0852.0028.1697C3.8362 16.5807 3 17.6927 3 19v2c0 .5523.4477 1 1 1s1-.4477 1-1v-2c0-.3626.193-.6802.482-.8555C6.2846 19.8329 8.006 21 10 21h4c1.9939 0 3.7153-1.1671 4.5181-2.8555A1 1 0 0 1 19 19v2c0 .5523.4477 1 1 1s1-.4477 1-1v-2c0-1.3073-.8362-2.4193-2.0028-2.8303A5 5 0 0 0 19 16v-2h1c.5523 0 1-.4477 1-1s-.4477-1-1-1h-1v-2c1.6569 0 3-1.3431 3-3V5c0-.5523-.4477-1-1-1s-1 .4477-1 1v2c0 .5523-.4477 1-1 1 0-1.6569-1.3431-3-3-3 0-2.2091-1.7909-4-4-4m2 4c0-1.1046-.8954-2-2-2s-2 .8954-2 2zM8 7c-.5523 0-1 .4477-1 1v8c0 1.6569 1.3431 3 3 3h1V7zm5 0v12h1c1.6569 0 3-1.3431 3-3V8c0-.5523-.4477-1-1-1z"/></svg>
